X: 88
T: Xinshang de ren
%%abc-version 2.0
%%abcx-abcm2ps-target-version 5.9.1 (29 Sep 2008)
%%abc-creator hum2abc beta
%%abcx-conversion-date 2013/10/02 07:44:27
%%abc-edited-by Helmut Schaffrath
%%humdrum-veritas 2744546384
%%humdrum-veritas-data 604752050
%%continueall 1
%%barnumbers 0
L: 1/8
M: 2/4
K: G
E B B A [I:setbarnb 1]| 
G G A d/ e/ | 
B3d | 
E B B A | 
G G A d/ e/ | 
B4 | 
E B B d/ e/ | 
B> A G E | 
E/ G/ E/ D/ B, D | 
E> G B/ A/ G/ B/ | 
E4 | 
E B B A | 
G G A d/ e/ | 
B3d | 
E B B A | 
G G A d/ e/ | 
B4 | 
E B B g | 
e4- | 
e3z | 
e> G B/ A/ G/ B/ | 
E4 | 
E B B A | 
G G A B/ A/ | 
B d/ e/ A B/ A/ | 
E B B A | 
G G A b/ a/ | 
A B/ d/ e d/ B/ | 
e4- | 
ez3 | 
E/ G/ E/ D/ B, D | 
E> G B/ A/ G/ B/ | 
E4 | 
E B B A | 
G G A d/ e/ | 
B3e | 
E B B A | 
G G A d/ e/ | 
B4 | 
E B B g | 
e4- | 
e3z | 
E> G B/ A/ G/ B/ | 
E4 | 
E/ G/ E/ D/ B, D | 
E> G B/ A/ G/ B/ | 
e4- | 
e4- | 
e4 |]  



